X:19
T:Rakes of Mallow
M:2/4
Q:1/4=100
L:1/8
K:G
%%MIDI channel 1
%%MIDI program 72
%%MIDI transpose 8
%%MIDI grace 1/8
%%MIDI ratio 3 1
GB GB|GB c/B/A/G/|FA FA|FA B/A/G/F/|GB GB|GB d2|c/B/A/G/ F/G/A/B/|BG Gz::
gf/e/ dc|Bc dz|gf/e/ dc|BA Az|gf/e/ dc|Bc d2|c/B/A/G/ F/G/A/B/|BG Gz:|

